packages/katcn/src/icons/svg/secure-1.svg

<svg width="24" height="25" viewBox="0 0 24 25" fill="none" xmlns="http://www.w3.org/2000/svg">
<path d="M20.0366 5.25474L13.8345 2.35144C12.7341 1.85087 11.3336 1.85087 10.2332 2.35144L4.03111 5.25474C2.63063 5.95553 1.83035 7.55735 2.03042 9.15918C2.5306 12.4629 4.13115 18.67 9.83311 23.2752C10.5334 23.7758 11.3336 23.976 12.0339 23.976C12.7341 23.976 13.5344 23.6757 14.1346 23.1751C19.8366 18.5699 21.5371 12.3628 21.9373 9.05906C22.2374 7.55736 21.4371 5.95553 20.0366 5.25474Z" fill="black"/>
<path d="M11.5 16.176C11.2 16.176 10.9 16.076 10.7 15.776L8 12.476C7.6 12.076 7.7 11.376 8.1 11.076C8.5 10.676 9.2 10.776 9.5 11.176L11.5 13.576L15.7 8.47601C16.1 8.07601 16.7 7.97601 17.1 8.37601C17.5 8.77601 17.6 9.37601 17.2 9.77601L12.2 15.776C12.1 16.076 11.8 16.176 11.5 16.176Z" fill="white"/>
</svg>

<svg xmlns="http://www.w3.org/2000/svg" fill="none" viewBox="0 0 24 25"><path fill="#000" d="M20.037 5.255 13.835 2.35c-1.1-.5-2.501-.5-3.602 0L4.031 5.255c-1.4.7-2.2 2.302-2 3.904.5 3.304 2.1 9.511 7.802 14.116.7.5 1.5.701 2.2.701s1.501-.3 2.102-.8c5.702-4.606 7.402-10.813 7.802-14.117.3-1.502-.5-3.103-1.9-3.804"/><path fill="#fff" d="M11.5 16.176c-.3 0-.6-.1-.8-.4l-2.7-3.3c-.4-.4-.3-1.1.1-1.4.4-.4 1.1-.3 1.4.1l2 2.4 4.2-5.1c.4-.4 1-.5 1.4-.1s.5 1 .1 1.4l-5 6c-.1.3-.4.4-.7.4"/></svg>
